X:1
T:87
L:1/8
M:2/4
K:Emin
V:1 treble nm="Piano" snm="Pno."
V:1
 (Be B/>A/G/A/ | EB,/D/ E2) | (G/G/B A/>G/E/G/ | DB,/A,/ B,2) | (G E2 A/B/ | E/>G/D/B,/ D2) | %6
 (GB E/D/B,/D/ | E4) |] %8

